X:1
T:Rokudan Breathing Study
C:Inspired by koto/shakuhachi practice forms; original study
S:Public domain or original as noted in notes.md
M:4/4
L:1/8
Q:1/4=60
K:Dmin
H:D minor pentatonic starter arrangement for Shakuhachi (D). Refs #1
D2 F2 G2 A2 | c4 A4 | G2 F2 D2 F2 | G4 D4 |
D2 F2 A2 c2 | d4 c4 | A2 G2 F2 D2 | F8 |
G2 A2 c2 d2 | c4 A4 | G2 F2 D2 F2 | D8 |]
